X:980
T:Pressed for Time
R:reel
C:Gordon Duncan (1964-2005), Scotland
Z:id:hn-reel-980
M:C|
L:1/8
K:Amix
GAgG AfGA | eGAe GAeA | GA~A2 eAcA | GA~A2 dAcA |
GAgG AfGA | eGAe GAeA | cA~A2 eAcA | ~A2eA dAcA :|
|: G3A dAcA | GA~A2 dAcA | cd~d2 ed~d2 | ef~f2 ~a3f |
eA~A2 BAeA | A2eA dAcA | GA~A2 dAcA | c2ec dBcA :|
|: g3f geef | gfga geeg | ef~f2 fedc | cd~d2 fedf |
eA~A2 BAeA | A2eA dAcA | GA~A2 dAcA | c2ec dBcA :|
|: g3f geef | gfga geeg | ef~f2 fedc | cd~d2 fedf |
[1 eaae a2ea | aea2 efgf | eaag ~a3g | aA~A2 (3Bcd ef :|
[2 eA~A2 BAeA | A2eA dAcA | GA~A2 dAcA | c2ec dBcA ||
P:Flook version
|: GAgG AfGA | eGAe GAeA | GA~A2 d2cA | GA~A2 d2cA |
GAgG AfGA | eGAe GAeA | cA~A2 dAcA | ~A2eA e4 :|
|: GAdA cAGA | ~A2dA cA~A2 | cd~d2 ed~d2 | effe a3f |
eA~A2 BAeA | ~A2e2 d2cA | GA~A2 dAcA |1 A2e2 d2cA :|2 A2e2 G2 (3Bcd ||
|: ~g3f geef | ~g3a geeg | e~f2g fedB | dBde f2dB |
eA~A2 GAeA | ~A2e2 d2cA | GA~A2 dAcA | A2e2 G2 (3Bcd :|
|: ~g3f geef | ~g3a geeg | e~f2g fedB | dBde f2dB |
[1 eaae a2ea | aea2 efgf | eAae a3f | gfdA (3Bcd ef :|
[2 eA~A2 GAeA | A2e2 d2cA | GAA2 dAcA | A2eA e4 ||

